svgs/regular/face-smirking.svg

<svg xmlns="http://www.w3.org/2000/svg" viewBox="0 0 512 512"><!--! Font Awesome Pro 6.4.2 by @fontawesome - https://fontawesome.com License - https://fontawesome.com/license (Commercial License) Copyright 2023 Fonticons, Inc. --><path d="M464 256A208 208 0 1 0 48 256a208 208 0 1 0 416 0zM0 256a256 256 0 1 1 512 0A256 256 0 1 1 0 256zm382.3 88.9l-1.9 4.8c-12.2 30.4-41.6 50.3-74.3 50.3H184c-13.3 0-24-10.7-24-24s10.7-24 24-24H306.1c13.1 0 24.9-8 29.7-20.1l1.9-4.8c4.9-12.3 18.9-18.3 31.2-13.4s18.3 18.9 13.4 31.2zM112 192h64c17.7 0 32 14.3 32 32s-14.3 32-32 32s-32-14.3-32-32H112c-8.8 0-16-7.2-16-16s7.2-16 16-16zm176 16c0-8.8 7.2-16 16-16h64c17.7 0 32 14.3 32 32s-14.3 32-32 32s-32-14.3-32-32H304c-8.8 0-16-7.2-16-16z"/></svg>

<svg xmlns="http://www.w3.org/2000/svg" viewBox="0 0 512 512"><!--! Font Awesome Pro 6.1.1 by @fontawesome - https://fontawesome.com License - https://fontawesome.com/license (Commercial License) Copyright 2022 Fonticons, Inc. --><path d="M380.4 349.7C368.2 380.1 338.8 400 306.1 400H184C170.7 400 160 389.3 160 376C160 362.7 170.7 352 184 352H306.1C319.2 352 330.9 344 335.8 331.9L337.7 327.1C342.6 314.8 356.6 308.8 368.9 313.7C381.2 318.6 387.2 332.6 382.3 344.9L380.4 349.7zM176 192C193.7 192 208 206.3 208 224C208 241.7 193.7 256 176 256C158.3 256 144 241.7 144 224H112C103.2 224 96 216.8 96 208C96 199.2 103.2 192 112 192H176zM288 208C288 199.2 295.2 192 304 192H368C385.7 192 400 206.3 400 224C400 241.7 385.7 256 368 256C350.3 256 336 241.7 336 224H304C295.2 224 288 216.8 288 208zM512 256C512 397.4 397.4 512 256 512C114.6 512 0 397.4 0 256C0 114.6 114.6 0 256 0C397.4 0 512 114.6 512 256zM256 48C141.1 48 48 141.1 48 256C48 370.9 141.1 464 256 464C370.9 464 464 370.9 464 256C464 141.1 370.9 48 256 48z"/></svg>
